svgs/osaifukeitai.svg

<svg xmlns="http://www.w3.org/2000/svg" viewBox="0 0 192 192"><path d="M44.979 17.741a28.64 28.64 0 0 1 24.954 14.912 12.218 12.218 0 0 0 14.479 5.719 68.911 68.911 0 0 1 21.42-3.437 69.652 69.652 0 0 1 67.905 54.158 69.667 69.667 0 0 1-37.68 78.266 69.654 69.654 0 0 1-45.717 5.154 69.66 69.66 0 0 1-54.153-67.914 69.005 69.005 0 0 1 2.645-18.683 12.22 12.22 0 0 0-6.323-14.239 28.398 28.398 0 0 1-15.261-31.94 28.395 28.395 0 0 1 27.731-21.996Zm9.927 66.098h11.507" fill="none" stroke="#000" stroke-width="6" stroke-linecap="round" stroke-linejoin="round"/><path d="M60.708 80.639V99.61a2.415 2.415 0 0 1-2.636 2.621 4.403 4.403 0 0 1-4.482-4.297c0-5.433 6.482-8.873 12.205-8.873a7.556 7.556 0 0 1 7.953 6.735c.062 3.507-2.793 6.285-7.666 7.19m5.281-20.541a24.432 24.432 0 0 1 4.036 5.189m5.794.548h20.334M86.13 81.986v12.472m10.271-12.472v9.502a10.961 10.961 0 0 1-8.765 10.755M127.007 82.2a30.11 30.11 0 0 1-17.529 11.841m10.795-4.772v13.268m17.645-18.325h16.029a1.678 1.678 0 0 1 1.679 1.676v2.385a13.317 13.317 0 0 1-12.806 13.352m-84.638 6.958a13.434 13.434 0 0 1-1.441 5.977 13.434 13.434 0 0 1-3.95 4.711m4.146-4.54h17.102m-7.003.071c0 7.751-2.442 12.106-7.829 14.345m22.423-10.662h19.509m8.801-1.175a14.485 14.485 0 0 0 6.363-6.85 1.666 1.666 0 0 1 1.466-.914h8.398a1.542 1.542 0 0 1 1.188.547 1.682 1.682 0 0 1 .42 1.418 21.338 21.338 0 0 1-16.007 17.441m4.451-12.644a27.212 27.212 0 0 1 7.211 4.88m31.316-12.349a30.102 30.102 0 0 1-17.529 11.841m10.791-4.77v13.268" fill="none" stroke="#000" stroke-width="6" stroke-linecap="round" stroke-linejoin="round"/></svg>

<svg
    xmlns="http://www.w3.org/2000/svg"
    viewBox="0 0 192 192"
    id="vector">
    <path
        id="path"
        d="M 44.979 17.741 C 50.09 17.772 55.101 19.172 59.488 21.794 C 63.876 24.416 67.483 28.166 69.933 32.653 C 71.304 35.141 73.501 37.074 76.143 38.118 C 78.785 39.161 81.71 39.251 84.412 38.372 C 91.326 36.103 98.556 34.942 105.832 34.935 C 121.607 34.934 136.924 40.294 149.258 50.131 C 161.592 59.968 170.226 73.71 173.737 89.093 C 177.248 104.475 175.432 120.604 168.587 134.82 C 161.743 149.035 150.27 160.513 136.057 167.359 C 121.844 174.205 105.719 176.023 90.34 172.513 C 74.96 169.002 61.22 160.368 51.384 148.032 C 41.548 135.696 36.188 120.377 36.187 104.599 C 36.209 98.28 37.099 91.993 38.832 85.916 C 39.6 83.178 39.388 80.257 38.234 77.658 C 37.08 75.059 35.054 72.943 32.509 71.677 C 26.726 68.869 22.065 64.178 19.293 58.377 C 16.521 52.576 15.8 46.002 17.248 39.737 C 18.697 33.473 22.23 27.883 27.267 23.888 C 32.304 19.893 38.551 17.725 44.979 17.741 Z M 54.906 83.839 L 66.413 83.839"
        fill="none"
        stroke="#000000"
        stroke-width="6"
        stroke-linecap="round"
        stroke-linejoin="round"/>
    <path
        id="path_1"
        d="M 60.708 80.639 L 60.708 99.61 C 60.751 100.083 60.653 100.558 60.428 100.975 C 60.202 101.393 59.858 101.735 59.439 101.958 C 59.02 102.182 58.544 102.277 58.072 102.231 C 56.909 102.252 55.784 101.812 54.945 101.007 C 54.105 100.202 53.618 99.096 53.59 97.934 C 53.59 92.501 60.072 89.061 65.795 89.061 C 67.731 88.947 69.639 89.583 71.119 90.836 C 72.599 92.09 73.541 93.867 73.748 95.796 C 73.81 99.303 70.955 102.081 66.082 102.986 M 71.363 82.445 C 72.936 83.985 74.294 85.731 75.399 87.634 M 81.193 88.182 L 101.527 88.182 M 86.13 81.986 L 86.13 94.458 M 96.401 81.986 L 96.401 91.488 C 96.405 94.016 95.534 96.47 93.937 98.429 C 92.34 100.389 90.113 101.737 87.636 102.243 M 127.007 82.2 C 122.79 88.136 116.559 92.345 109.478 94.041 M 120.273 89.269 L 120.273 102.537 M 137.918 84.212 L 153.947 84.212 C 154.392 84.212 154.819 84.388 155.133 84.703 C 155.448 85.017 155.625 85.443 155.626 85.888 L 155.626 88.273 C 155.637 91.723 154.307 95.046 151.919 97.536 C 149.531 100.026 146.267 101.493 142.82 101.625 M 58.182 108.583 C 58.17 110.66 57.677 112.706 56.741 114.56 C 55.806 116.415 54.454 118.027 52.791 119.271 M 56.937 114.731 L 74.039 114.731 M 67.036 114.802 C 67.036 122.553 64.594 126.908 59.207 129.147 M 81.63 118.485 L 101.139 118.485 M 109.94 117.31 C 112.759 115.793 114.998 113.384 116.303 110.46 C 116.44 110.188 116.649 109.959 116.908 109.797 C 117.166 109.636 117.464 109.549 117.769 109.546 L 126.167 109.546 C 126.393 109.545 126.617 109.593 126.822 109.687 C 127.028 109.782 127.21 109.921 127.355 110.093 C 127.529 110.282 127.657 110.508 127.73 110.754 C 127.803 110.999 127.818 111.259 127.775 111.511 C 127.127 115.674 125.26 119.553 122.412 122.656 C 119.563 125.759 115.859 127.951 111.768 128.952 M 116.219 116.308 C 118.869 117.537 121.304 119.185 123.43 121.188 M 154.746 108.839 C 150.529 114.776 144.298 118.985 137.217 120.68 M 148.008 115.91 L 148.008 129.178"
        fill="none"
        stroke="#000000"
        stroke-width="6"
        stroke-linecap="round"
        stroke-linejoin="round"/>
</svg>
